app/dist/common/images/hoyuan-green-energy-coltd.svg

<svg height="18" viewBox="0 0 18 18" width="18" xmlns="http://www.w3.org/2000/svg"><path d="m0 0h18v18h-18z" fill="#f0f3fa"/><path d="m4.94 13h-1.94l2.16-7.06c.18-.56.64-.94 1.16-.94h4.44l-.83 3.5h-1.64l.36-1.5h-1.77z" fill="#d23733"/><path d="m13.06 5h1.94l-2.15 7.06c-.18.56-.64.94-1.15.94h-4.46l.88-3.5h1.58l-.35 1.5h1.77z" fill="#073662"/></svg>

<!-- by TradingView --><svg width="18" height="18" viewBox="0 0 18 18" xmlns="http://www.w3.org/2000/svg"><path fill="#F0F3FA" d="M0 0h18v18H0z"/><path d="M4.94 13H3l2.16-7.06C5.34 5.38 5.8 5 6.32 5h4.44l-.83 3.5H8.29L8.65 7H6.88l-1.94 6Z" fill="#D23733"/><path d="M13.06 5H15l-2.15 7.06c-.18.56-.64.94-1.15.94H7.24l.88-3.5H9.7L9.35 11h1.77l1.94-6Z" fill="#073662"/></svg>
